X:1
T: Jenny Geddes
C:
R:Reel
Q: 232
K:Bb
M:4/4
L:1/8
|:B1/2B1/2B B2 Ac AF|B1/2B1/2B B2 ce dc|Bc dB GG eg|fd ce dB B2|
B1/2B1/2B B2 Ac AF|B1/2B1/2B B2 ce dc|Bc dB GG eg|fd ce dB B2|
f1/2f1/2f f2 df dB|g1/2g1/2g g2 eg ec|f1/2f1/2f f2 df dB|ec dB Ac AF|
f1/2f1/2f f2 df dB|g1/2g1/2g g2 eg ec|dB ec fd ge|dB cA B2 B,2:|
